X: 865
T: Gönlüme Gir Doğ Güneşim
C: Yılmaz Yüksel
O: Turkey
F: http://compmusic.upf.edu/node/140
N: ussak--sarki--semai--gonlume_gir--yilmaz_yuksel
N: makam= ussak
N: form= sarki
N: usul= semai = 3/4
M: 3/4
L: 1/16
K: C _2/4B   
Q: 1/4=180
%%MIDI tuningsystem comma53
e2 d2 f2  | e2 d2 c2  | c6  | c4 B2  | d2 c2 e2  | \
w:  ARANAĞME  |   |   |   |   | 
d2 c2 B2  | B6  | B4 A2  | c2 B2 d2  | 
w:   |   |   |   | 
c2 B2 A2  | A2 B2 c2  | d4 z2  | e2 d2 f2  | \
w:   |   |   |  ARANAĞME  | 
e2 d2 c2  | c6  | c4 B2  | d2 c2 e2  | d2 c2 B2  | 
w:   |   |   |   |   | 
B6  | B4 A2  | c2 B2 d2  | c2 B2 A2  | A6  | A4 z2  | \
w:   |   |   |   |   |   | 
G2 ^F2 G2  | A6  | B2 A2 B2  | c2 d2 B2  | 
w:  Gön *  lü  |  me   |  gir   |   | 
c2 B2 d2  | c2 B2 {c}A2  | A6  | A4 z2  | c4 d2  | d6  | \
w:  doğ  *  gü  |  ne  |  şim   |   |  Kal bi  |  mi   | 
e2 d2 e2  | e2 d2 c2  | d2 e2 g2  | 
w:  yak   |   |  aşk  *  a  | 
f2 e2 d2  | d6  | c2 B2 A2  | G2 ^F2 G2  | A6  | \
w:  te  |  şim   |  SAZ  |  Gön *  lü  |  me   | 
B2 A2 B2  | c2 d2 B2  | c2 B2 d2  | c2 B2 {c}A2  | 
w:  gir   |   |  doğ  *  gü  |  ne  | 
A6  | A4 z2  | c4 d2  | d6  | e2 d2 e2  | e2 d2 c2  | \
w:  şim   |   |  Kal bi  |  mi   |  yak   |   | 
d2 e2 g2  | f2 e2 d2  | d6  | d2 e2 f2  | 
w:  aşk  *  a  |  te  |  şim   |  SAZ  | 
f4 f2  | f4 e2  | e2 f2 g2  | f2 e2 d2  | e2 d2 e2  | \
w:  Kim se  |  si  |  zim   |   |  yok *  tur   | 
e2 d2 c2  | c6  | c2 BA B2  | 
w:  e  |  şim   |   | 
c4 d2  | d2 c2 B2  | B6  | B4 A2  | c2 B2 d2  | \
w:  Yan dı   |  ha  |  yat   |   |  sön *  dü   | 
c2 B2 A2  | A2 B2 c2  | d2 e2 f2  | f4 f2  | 
w:  e  |  mel    |   |  Kim se  | 
f4 e2  | e2 f2 g2  | f2 e2 d2  | e2 d2 e2  | \
w:  si  |  zim   |   |  yok *  tur   | 
e2 d2 c2  | c6  | c2 BA B2  | c4 d2  | 
w:  e  |  şim   |   |  Yan dı   | 
d2 c2 B2  | B6  | B4 A2  | c2 B2 d2  | c2 B2 A2  | A6  | A6  | \
w:  ha  |  yat   |   |  sön *  dü   |  e  |  mel    |   | 
e2 d2 f2  | e2 d2 c2  | c6  | 
w:  ARANAĞME  |   |   | 
c4 B2  | d2 c2 e2  | d2 c2 B2  | B6  | B4 A2  | \
w:   |   |   |   |   | 
c2 B2 d2  | c2 B2 A2  | A2 B2 c2  | d4 z2  | 
w:   |   |   |   | 
e2 d2 f2  | e2 d2 c2  | c6  | c4 B2  | d2 c2 e2  | \
w:  ARANAĞME  |   |   |   |   | 
d2 c2 B2  | B6  | B4 A2  | c2 B2 d2  | 
w:   |   |   |   | 
c2 B2 A2  | A6  | A4 z2  | G2 ^F2 G2  | A6  | \
w:   |   |   |  Gön *  lü  |  me   | 
B2 A2 B2  | c2 d2 B2  | c2 B2 d2  | c2 B2 {c}A2  | 
w:  gir   |   |  doğ  *  gü  |  ne  | 
A6  | A4 z2  | c4 d2  | d6  | e2 d2 e2  | e2 d2 c2  | \
w:  şim   |   |  Kal bi  |  mi   |  yak   |   | 
d2 e2 g2  | f2 e2 d2  | d6  | c2 B2 A2  | 
w:  aşk  *  a  |  te  |  şim   |  SAZ  | 
G2 ^F2 G2  | A6  | B2 A2 B2  | c2 d2 B2  | \
w:  Gön *  lü  |  me   |  gir   |   | 
c2 B2 d2  | c2 B2 {c}A2  | A6  | A4 z2  | c4 d2  | 
w:  doğ  *  gü  |  ne  |  şim   |   |  Kal bi  | 
d6  | e2 d2 e2  | e2 d2 c2  | d2 e2 g2  | f2 e2 d2  | d6  | \
w:  mi   |  yak   |   |  aşk  *  a  |  te  |  şim   | 
d2 e2 f2  | f4 f2  | f4 e2  | 
w:  SAZ  |  Kim se  |  si  | 
e2 f2 g2  | f2 e2 d2  | e2 d2 e2  | e2 d2 c2  | c6  | \
w:  zim   |   |  yok *  tur   |  e  |  şim   | 
c2 BA B2  | c4 d2  | d2 c2 B2  | 
w:   |  Yan dı   |  ha  | 
B6  | B4 A2  | c2 B2 d2  | c2 B2 A2  | A2 B2 c2  | \
w:  yat   |   |  sön *  dü   |  e  |  mel    | 
d2 e2 f2  | f4 f2  | f4 e2  | e2 f2 g2  | 
w:   |  Kim se  |  si  |  zim   | 
f2 e2 d2  | e2 d2 e2  | e2 d2 c2  | c6  | c2 BA B2  | \
w:   |  yok *  tur   |  e  |  şim   |   | 
c4 d2  | d2 c2 B2  | B6  | B4 A2  | 
w:  Yan dı   |  ha  |  yat   |   | 
c2 B2 d2  | c2 B2 A2  | A6  | A6  | |


